X:2742
T:Hurrah for the Bonnets O' Blue. CJF.089
O:england
M:6/8
L:1/8
Q:100
S: C.J.Fox MS, 1829/33, Beverley,E.Yorks.
R:Jig
A:East Yorkshire
B:Kidson Coll.Mitchell Lib.M1805
K:D
A/B/|d>ed fga|ABA ABc|d2b afd|e3zfe|\
d>ed fga|ABAG2b|agf e>de|d3z2:|d|cde efe|
A3A2a|cde ef^g|a3a2g|ffe dBc|d2ef2^a|\
bfe dec|B3B2c|ded faf|d3d2G|deb afd|
e3e2e|ffe def|gabha2(d/4e/4f/4g/4a/4b/4)|\
a>gf ede|d3d2||


